X:33
T:Waltz. 2voices Dix.33
M:3/8
L:1/8
Q:3/8=60
S:Anon. MS dated 1811, from Dixon collection, Holton le Moor, Lincs.
R:waltz
N:Repeat marks added at start
N:Crotchets in last line replaced by quavers
O:England;Lincolnshire;Holton le Moor
Z:vmp.R.Greig 2012 <http://www.village-music-project.org.uk>
K:D
[V:1]|:A|d2f/a/|d2f/a/|a/g/f/g/e/c/|dfa|d2(f/a/)|d2f/a/|a/g/f/g/e/d/|d2:|
[V:2]|:z|D,F,A,|D,F,A,|C,E,A,|D,F,A,|D,F,A,|D,F,A,|A,,E,A,|D,D,,:|
[V:1]|:f/a/|gec’|d’af|a/g/b/g/e/c/|(d/c/d/e/f/g/)|{a}gec’|d’af|a/g/b/g/e/c/|[d2F2]:|
[V:2]|:z|A,,E,A,|F,A,F,|G,A,A,,|D,/C,/D,/E,/F,/G,/|D,F,A,|D,F,A,|G,A,A,,|D,D,,:|
[V:1]|:f/a/|{a}[ge][ge] e/g/|{g}[fdA][fdA] d/f/|f/e/g/b/a/c/|(d/c/d/e/f/g/)|{a}[ge][ge] e/g/|{g}[fdA][fdA] d/f/|f/e/g/b/a/d/|[d2F2]:|
[V:2]|:z|[A,A,,] [A,A,,]z|[D,D,,] [D,D,,]z|G,A,A,,|D,/C,/D,/E,/F,/G,/|A, A,z|[D,D,,] [D,D,,]z|A,A,A,,|D,2:|

